packages/ffe-icons/icons/open/300/md/business_center.svg

<svg xmlns="http://www.w3.org/2000/svg" height="24" viewBox="0 -960 960 960" width="24"><path d="M172.309-140.001q-30.308 0-51.308-21t-21-51.308v-415.382q0-30.308 21-51.308t51.308-21h167.692v-67.691q0-30.307 21-51.307 21-21 51.308-21h135.382q30.308 0 51.308 21t21 51.307v67.691h167.692q30.308 0 51.308 21t21 51.308v415.382q0 30.308-21 51.308t-51.308 21H172.309ZM400-699.999h160v-67.691q0-4.616-3.846-8.462-3.847-3.847-8.463-3.847H412.309q-4.616 0-8.463 3.847Q400-772.306 400-767.69v67.691Zm400 329.998H579.999v33.846q0 15.461-10.347 25.807-10.346 10.347-25.807 10.347h-127.69q-15.461 0-25.807-10.347-10.347-10.346-10.347-25.807v-33.846H160v157.692q0 4.616 3.846 8.463 3.847 3.846 8.463 3.846h615.382q4.616 0 8.463-3.846 3.846-3.847 3.846-8.463v-157.692ZM440-360h80v-80h-80v80Zm-280-69.999h220.001v-33.846q0-15.461 10.347-25.807 10.346-10.347 25.807-10.347h127.69q15.461 0 25.807 10.347 10.347 10.346 10.347 25.807v33.846H800v-197.692q0-4.616-3.846-8.463-3.847-3.846-8.463-3.846H172.309q-4.616 0-8.463 3.846-3.846 3.847-3.846 8.463v197.692ZM480-400Z"/></svg>

<svg xmlns="http://www.w3.org/2000/svg" height="24" viewBox="0 -960 960 960" width="24"><path d="M172.31-140Q142-140 121-161q-21-21-21-51.31v-415.38Q100-658 121-679q21-21 51.31-21H340v-67.69Q340-798 361-819q21-21 51.31-21h135.38Q578-840 599-819q21 21 21 51.31V-700h167.69Q818-700 839-679q21 21 21 51.31v415.38Q860-182 839-161q-21 21-51.31 21H172.31ZM400-700h160v-67.69q0-4.62-3.85-8.46-3.84-3.85-8.46-3.85H412.31q-4.62 0-8.46 3.85-3.85 3.84-3.85 8.46V-700Zm400 330H580v33.84q0 15.47-10.35 25.81Q559.31-300 543.84-300H416.16q-15.47 0-25.81-10.35Q380-320.69 380-336.16V-370H160v157.69q0 4.62 3.85 8.46 3.84 3.85 8.46 3.85h615.38q4.62 0 8.46-3.85 3.85-3.84 3.85-8.46V-370Zm-360 10h80v-80h-80v80Zm-280-70h220v-33.84q0-15.47 10.35-25.81Q400.69-500 416.16-500h127.68q15.47 0 25.81 10.35Q580-479.31 580-463.84V-430h220v-197.69q0-4.62-3.85-8.46-3.84-3.85-8.46-3.85H172.31q-4.62 0-8.46 3.85-3.85 3.84-3.85 8.46V-430Zm320 30Z"/></svg>
